X: 22
% Old value - X: 1
T: Munster Bacon
R: jig
M: 6/8
L: 1/8
S: Jonathan Berkahn
K: D
|ABA DFA|dfe d2c|~B3 dAF|GFG EFG|
A2A dcd|~B3 efg|f/g/af gec|1 edc dcB:|2 fdc dfg||
|:afd dfa|bag a2g|~f3 ged|cde A2G|
F2d cde|def efg|f/g/af gec|1 edc dfg:|2 edc dcB||

